icon/pk/bus.svg

<svg viewBox="0 0 48 48" fill="none" xmlns="http://www.w3.org/2000/svg" height="1em" width="1em">
  <path d="M6.01245 34.005V8.03613C6.01245 6.93156 6.90788 6.03613 8.01245 6.03613H40.0001C41.1046 6.03613 42.0001 6.93156 42.0001 8.03613V34.005C42.0001 35.6618 40.6569 37.005 39.0001 37.005H37.0049V37.9999C37.0049 40.2091 35.2141 41.9999 33.0049 41.9999H33.0045C30.7954 41.9999 29.0045 40.2091 29.0045 37.9999V37.005H19.008V38.0016C19.008 40.2098 17.2178 41.9999 15.0096 41.9999C12.8014 41.9999 11.0113 40.2098 11.0113 38.0016V37.005H9.01245C7.3556 37.005 6.01245 35.6618 6.01245 34.005Z" stroke="black" stroke-width="4" stroke-linejoin="round"/>
  <path d="M42 23H6" stroke="black" stroke-width="4" stroke-linecap="round" stroke-linejoin="round"/>
  <path d="M34 13H14V23H34V13Z" fill="#2F88FF" stroke="black" stroke-width="4" stroke-linecap="round" stroke-linejoin="round"/>
  <path d="M14 30H16" stroke="black" stroke-width="4" stroke-linecap="round" stroke-linejoin="round"/>
  <path d="M32 30H34" stroke="black" stroke-width="4" stroke-linecap="round" stroke-linejoin="round"/>
</svg>

<svg width="48" height="48" fill="none" xmlns="http://www.w3.org/2000/svg"><path d="M6.012 34.005V8.036a2 2 0 0 1 2-2H40a2 2 0 0 1 2 2v25.969a3 3 0 0 1-3 3h-1.995V38a4 4 0 1 1-8 0v-.995h-9.997v.997a3.998 3.998 0 0 1-7.997 0v-.997H9.012a3 3 0 0 1-3-3Z" stroke="#000" stroke-width="4" stroke-linejoin="round"/><path d="M42 23H6" stroke="#000" stroke-width="4" stroke-linecap="round" stroke-linejoin="round"/><path d="M34 13H14v10h20V13Z" fill="#2F88FF" stroke="#000" stroke-width="4" stroke-linecap="round" stroke-linejoin="round"/><path d="M14 30h2M32 30h2" stroke="#000" stroke-width="4" stroke-linecap="round" stroke-linejoin="round"/></svg>
